X:159
U: ~ = !turn!
%%topmargin 3cm
T:Paddy Lynch's Boat
B:Traditional Irish Fiddle Tunes. Randy Miller and Jack Perron.
Z:Transcribed by Ralph Palmer
R:Air
M:C
L:1/8
U: ~ = !turn!
%%staves {1 2}
K:C
V:1
C>D | G3 A/2G/2 EGc>A | G4 CD (E2 | E) D C>B, C4 | E G2 G c2 ec |
Pd3 c/2d/2 e3 e | d2 ((3cAG) ((3AG>E) G2 | E G2 G c2 ec | Pd3 c/2d/2 e3 e |
d2 ((3cAG) ((3AG>E) (G2 | G2) CE G3 A/2G/2 | EGc>A G4 | CD E3 D C>B, | C6 ||
V:2
C2 | E4 CE F2 | E4 EF (G2 | G2) PF2 PE4 | E4 G2 c2 |
PB3 A/2B/2 c4 | (C4C>)C E2 | CE G4 c2 | PB3 A/2B/2 c4 |
(C4C>)C PE2 | PD2 CE E4 | CE F2 E4 | EF G4 F2 | E6 |]
